icons/system-error.svg

<svg xmlns="http://www.w3.org/2000/svg" viewBox="0 0 36 36">
    <title>system-error</title>
    <g id="System-error" stroke="none" stroke-width="1" fill="none" fill-rule="evenodd">
        <g id="window" transform="translate(2.000000, 3.000000)" fill-rule="nonzero">
            <rect id="Rectangle-path" fill="black" x="3" y="3" width="2" height="2"></rect>
            <rect id="Rectangle-path" fill="black" x="7" y="3" width="2" height="2"></rect>
            <rect id="Rectangle-path" fill="black" x="11" y="3" width="2" height="2"></rect>
            <path d="M30,0 L2,0 C0.8954305,0 0,0.959389822 0,2.14285714 L0,27.8571429 C0,29.0406102 0.8954305,30 2,30 L30,30 C31.1045695,30 32,29.0406102 32,27.8571429 L32,2.14285714 C32,0.959389822 31.1045695,0 30,0 Z M2,2 L30,2 L30,7 L2,7 L2,2 Z M2,28 L2,8.8 L30,8.8 L30,28 L2,28 Z" id="Shape" fill="black"></path>
            <path d="M16,11 C11.8578644,11 8.5,14.3578644 8.5,18.5 C8.5,22.6421356 11.8578644,26 16,26 C20.1421356,26 23.5,22.6421356 23.5,18.5 C23.5,16.5108763 22.7098237,14.603222 21.3033009,13.1966991 C19.896778,11.7901763 17.9891237,11 16,11 Z M19.7928082,21.0256849 C20.1285293,21.3637702 20.1266127,21.9099981 19.7885274,22.2457192 C19.4504421,22.5814402 18.9042142,22.5795236 18.5684932,22.2414384 L16,19.6729452 L13.4315068,22.2414384 C13.0918148,22.5323431 12.5854502,22.5127845 12.2692096,22.1965439 C11.9529689,21.8803032 11.9334103,21.3739386 12.2243151,21.0342466 L14.7928082,18.4657534 L12.2243151,15.8972603 C11.8791371,15.5639035 11.8695542,15.0138424 12.202911,14.6686644 C12.5362678,14.3234864 13.0863289,14.3139035 13.4315068,14.6472603 L16,17.2157534 L18.5684932,14.6472603 C18.9081852,14.3563555 19.4145498,14.3759142 19.7307904,14.6921548 C20.0470311,15.0083954 20.0665897,15.51476 19.7756849,15.8544521 L17.2071918,18.4229452 L19.7928082,21.0256849 Z" id="Shape" fill="red"></path>
        </g>
        <rect id="Rectangle" x="0" y="0" width="36" height="36"></rect>
    </g>
</svg>

<svg xmlns="http://www.w3.org/2000/svg" viewBox="0 0 36 36">
  <title>system-error</title>
  <g id="System-error" fill="none" fill-rule="evenodd" stroke="none" stroke-width="1">
    <g id="window" fill-rule="nonzero" transform="translate(2 3)">
      <path id="Rectangle-path" fill="hsl(198, 10%, 46%)" d="M3 3h2v2H3zm4 0h2v2H7zm4 0h2v2h-2z"/>
      <path id="Shape" fill="hsl(198, 10%, 46%)" d="M30 0H2C.895 0 0 .96 0 2.143v25.714C0 29.041.895 30 2 30h28c1.105 0 2-.96 2-2.143V2.143C32 .959 31.105 0 30 0M2 2h28v5H2zm0 26V8.8h28V28z"/>
      <path id="Shape" fill="hsl(9, 100%, 44%)" d="M16 11a7.5 7.5 0 1 0 0 15 7.5 7.5 0 0 0 0-15m3.793 10.026a.863.863 0 1 1-1.225 1.215L16 19.673l-2.568 2.568a.856.856 0 0 1-1.208-1.207l2.569-2.568-2.569-2.569a.869.869 0 0 1 1.208-1.25L16 17.216l2.568-2.569a.856.856 0 0 1 1.208 1.207l-2.569 2.569z"/>
    </g>
    <path id="Rectangle" d="M0 0h36v36H0z"/>
  </g>
</svg>
